hoodie_driver/public/Telegram.svg

<svg  viewBox="0 0 41 40" fill="#E0CC1B" xmlns="http://www.w3.org/2000/svg">
<path d="M12.2995 24.7885L15.783 23.2756L14.8055 24.2553C14.4922 24.5686 14.3167 24.9929 14.3167 25.4328V31.9532C14.3167 33.4461 16.1207 34.1704 17.1605 33.1307L20.6574 29.6338L28.2777 33.4439C29.2641 33.9371 30.4571 33.3528 30.6615 32.2509L35.0093 8.34416C35.2382 7.05785 33.9718 6.01814 32.761 6.49356L4.5103 17.5505C3.24395 18.0437 3.0751 19.7766 4.22148 20.5075L10.7399 24.6663C11.2064 24.964 11.7951 25.0107 12.2995 24.7885ZM31.197 10.688L27.7823 29.4717L21.0728 26.1193C20.4241 25.7949 19.651 25.9304 19.1511 26.4325L17.6492 27.9343V26.1281L24.3298 19.4478C25.625 18.1526 24.1676 16.0154 22.488 16.7418L11.7863 21.385L8.77812 19.4655L31.197 10.688Z" fill="#E0CC1B"/>
</svg>

<svg xmlns="http://www.w3.org/2000/svg" viewBox="0 0 41 40" fill="#E0CC1B" xmlns:v="https://vecta.io/nano"><path d="M12.3 24.789l3.483-1.513-.977.98c-.313.313-.489.738-.489 1.178v6.52c0 1.493 1.804 2.217 2.844 1.177l3.497-3.497 7.62 3.81c.986.493 2.179-.091 2.384-1.193l4.348-23.907c.229-1.286-1.038-2.326-2.248-1.851L4.51 17.551a1.67 1.67 0 0 0-.289 2.957l6.518 4.159c.466.298 1.055.344 1.56.122zm18.898-14.1l-3.415 18.784-6.709-3.352c-.649-.324-1.422-.189-1.922.313l-1.502 1.502v-1.806l6.681-6.68c1.295-1.295-.162-3.432-1.842-2.706l-10.702 4.643-3.008-1.92 22.419-8.777z"/></svg>
